src/assets/icons/copy-icon.svg

<svg viewBox="0 0 100 100" xmlns="http://www.w3.org/2000/svg"><path d="m74.24 16.5h-40.61a3.42 3.42 0 0 0 -3.42 3.41v51.75a3.42 3.42 0 0 0 3.42 3.41h40.61a3.41 3.41 0 0 0 3.41-3.41v-51.75a3.41 3.41 0 0 0 -3.41-3.41zm.41 55.16a.42.42 0 0 1 -.41.41h-40.61a.42.42 0 0 1 -.42-.41v-51.75a.42.42 0 0 1 .42-.41h40.61a.42.42 0 0 1 .41.41z"/><path d="m66.45 80.5h-40.77c-.14 0-.33-.19-.33-.48v-51.58a1.5 1.5 0 0 0 -3 0v51.56a3.41 3.41 0 0 0 3.33 3.48h40.77a1.5 1.5 0 0 0 0-3z"/></svg>

<svg xmlns="http://www.w3.org/2000/svg" data-name="Layer 1" viewBox="0 0 100 100" x="0px" y="0px"><title>Artboard 41 copy 23</title><path d="M74.24,16.5H33.63a3.42,3.42,0,0,0-3.42,3.41V71.66a3.42,3.42,0,0,0,3.42,3.41H74.24a3.41,3.41,0,0,0,3.41-3.41V19.91A3.41,3.41,0,0,0,74.24,16.5Zm.41,55.16a.42.42,0,0,1-.41.41H33.63a.42.42,0,0,1-.42-.41V19.91a.42.42,0,0,1,.42-.41H74.24a.42.42,0,0,1,.41.41Z"></path><path d="M66.45,80.5H25.68c-.14,0-.33-.19-.33-.48V28.44a1.5,1.5,0,0,0-3,0V80a3.41,3.41,0,0,0,3.33,3.48H66.45a1.5,1.5,0,0,0,0-3Z"></path></svg>
